svg/furkot/icomoon/eye.svg

<svg viewBox="0 0 512 512" xmlns="http://www.w3.org/2000/svg"><path d="m256 96c-111.656 0-208.44 65.024-256 160 47.56 94.976 144.344 160 256 160s208.44-65.024 256-160c-47.56-94.976-144.344-160-256-160zm126.224 84.856c30.08 19.184 55.568 44.888 74.72 75.144-19.144 30.264-44.64 55.96-74.72 75.152-37.8 24.112-81.448 36.848-126.224 36.848s-88.432-12.744-126.224-36.848c-30.08-19.184-55.568-44.888-74.712-75.152 19.144-30.264 44.64-55.96 74.72-75.144 1.96-1.248 3.936-2.464 5.928-3.648-4.976 13.664-7.704 28.408-7.704 43.8 0 70.688 57.304 128 128 128s128-57.312 128-128c0-15.384-2.728-30.136-7.704-43.8 1.992 1.192 3.968 2.4 5.928 3.648zm-126.224 27.144c0 26.512-21.488 48-48 48s-48-21.488-48-48 21.488-48 48-48 48 21.488 48 48z"/></svg>

<svg xmlns="http://www.w3.org/2000/svg" viewBox="0 0 512 512"><path d="M256 96C144.344 96 47.56 161.024 0 256 47.56 350.976 144.344 416 256 416S464.44 350.976 512 256C464.44 161.024 367.656 96 256 96ZM382.224 180.856C412.304 200.04 437.792 225.744 456.944 256 437.8 286.264 412.304 311.96 382.224 331.152 344.424 355.264 300.776 368 256 368S167.568 355.256 129.776 331.152C99.696 311.968 74.208 286.264 55.064 256 74.208 225.736 99.704 200.04 129.784 180.856 131.744 179.608 133.72 178.392 135.712 177.208 130.736 190.872 128.008 205.616 128.008 221.008 128.008 291.696 185.312 349.008 256.008 349.008S384.008 291.696 384.008 221.008C384.008 205.624 381.28 190.872 376.304 177.208 378.296 178.4 380.272 179.608 382.232 180.856V180.856ZM256 208C256 234.512 234.512 256 208 256S160 234.512 160 208 181.488 160 208 160 256 181.488 256 208Z"/></svg>
